web/img/icons/rent-property.svg

<svg xmlns="http://www.w3.org/2000/svg" viewBox="0 0 24 22"><path d="M8.1 10.3c2.5 0 4.5-2.3 4.5-5.2 0-2.8-2-5.2-4.5-5.2-2.5.1-4.5 2.4-4.5 5.3 0 2.8 2 5.1 4.5 5.1zm0-8.2c1.3 0 2.4 1.4 2.4 3 0 1.7-1.1 3-2.4 3-1.3 0-2.4-1.4-2.4-3s1-3 2.4-3zm5.1 10.3c-3.4-1.2-7.1-1.2-10.4 0-1.7.6-2.9 2.5-2.8 4.2L.3 21c0 .6.5 1 1 1h13.3c.5 0 1-.4 1-1l.3-4.4c.2-1.7-1-3.6-2.7-4.2zm.5 7.5H2.3l-.2-3.4c0-.7.6-1.8 1.4-2.1 2.9-1.1 6.1-1.1 9 0 .8.3 1.5 1.4 1.4 2.1l-.2 3.4zm7.8-6.5c-1.4-.5-2.8-.8-4.3-.8-.6 0-1 .5-1.1 1 0 .6.4 1.1 1 1.1 1.2 0 2.5.3 3.6.7.7.2 1.2 1.1 1.1 1.7l-.2 2.8h-4.3c-.6 0-1 .5-1 1.1 0 .6.5 1.1 1 1.1h5.3c.5 0 1-.4 1-1l.3-3.8c.2-1.6-.9-3.3-2.4-3.9zm.9-6.2c0-2.3-1.7-4.3-3.7-4.3-2.1 0-3.7 1.9-3.7 4.3 0 2.3 1.7 4.3 3.7 4.3s3.7-2 3.7-4.3zm-5.4 0c0-1.2.7-2.1 1.7-2.1.9 0 1.7 1 1.7 2.1 0 1.2-.7 2.1-1.7 2.1S17 8.4 17 7.2z"/></svg>

<?xml version="1.0" encoding="utf-8"?>
<!-- Generator: Adobe Illustrator 18.0.0, SVG Export Plug-In . SVG Version: 6.00 Build 0)  -->
<!DOCTYPE svg PUBLIC "-//W3C//DTD SVG 1.1//EN" "http://www.w3.org/Graphics/SVG/1.1/DTD/svg11.dtd">
<svg version="1.1" id="Warstwa_1" xmlns="http://www.w3.org/2000/svg" xmlns:xlink="http://www.w3.org/1999/xlink" x="0px" y="0px"
	 viewBox="0 0 24 22" enable-background="new 0 0 24 22" xml:space="preserve">
<g>
	<path d="M8.1,10.3c2.5,0,4.5-2.3,4.5-5.2c0-2.8-2-5.2-4.5-5.2C5.6,0,3.6,2.3,3.6,5.2C3.6,8,5.6,10.3,8.1,10.3z M8.1,2.1
		c1.3,0,2.4,1.4,2.4,3c0,1.7-1.1,3-2.4,3c-1.3,0-2.4-1.4-2.4-3C5.7,3.5,6.7,2.1,8.1,2.1z M13.2,12.4c-3.4-1.2-7.1-1.2-10.4,0
		C1.1,13-0.1,14.9,0,16.6L0.3,21c0,0.6,0.5,1,1,1h13.3c0.5,0,1-0.4,1-1l0.3-4.4C16.1,14.9,14.9,13,13.2,12.4z M13.7,19.9H2.3
		l-0.2-3.4c0-0.7,0.6-1.8,1.4-2.1c2.9-1.1,6.1-1.1,9,0c0.8,0.3,1.5,1.4,1.4,2.1L13.7,19.9z M21.5,13.4c-1.4-0.5-2.8-0.8-4.3-0.8
		c-0.6,0-1,0.5-1.1,1c0,0.6,0.4,1.1,1,1.1c1.2,0,2.5,0.3,3.6,0.7c0.7,0.2,1.2,1.1,1.1,1.7l-0.2,2.8h-4.3c-0.6,0-1,0.5-1,1.1
		c0,0.6,0.5,1.1,1,1.1h5.3c0.5,0,1-0.4,1-1l0.3-3.8C24.1,15.7,23,14,21.5,13.4z M22.4,7.2c0-2.3-1.7-4.3-3.7-4.3
		c-2.1,0-3.7,1.9-3.7,4.3c0,2.3,1.7,4.3,3.7,4.3C20.7,11.5,22.4,9.5,22.4,7.2z M17,7.2c0-1.2,0.7-2.1,1.7-2.1c0.9,0,1.7,1,1.7,2.1
		c0,1.2-0.7,2.1-1.7,2.1C17.7,9.3,17,8.4,17,7.2z"/>
</g>
</svg>
